X:1
T:In Sweetest Accord
T:In Sweetest Accord
T:Carl Harold Lowden
T:Annie Lewis Pinfold, 1910
T:Public Domain Courtesy of the Cyber Hymnal™
T:Public Domain Courtesy of the Cyber Hymnal™
C:Carl Harold Lowden
Z:Public Domain
Z:Courtesy of the Cyber Hymnal™
%%score ( 1 2 ) 3
L:1/8
Q:1/4=98
M:3/4
K:G
V:1 treble 
V:2 treble 
V:3 bass 
V:1
 [dgbd'][egbe'] [dgbd']2 [Bdgb]2 | [GBdg]6 | [EGce][Gceg] [Acea]2 [Gceg]2 | [Bdgb]6 | %4
w: 1.~Night se- rene and|fair,|Naught its peace can|mar;|
w: 2.~White winged ser- aphs|chant|Hea- ven’s tri- umph|song;|
w: 3.~Seek the man- ger|low,|Haste your Lord to|find;|
 [dgbd'][egbe'] [dgbd']2 [Bdgb]2 | [GBeg]6 | [EA^ce][Acea] [Acea]2 [Bcgb]2 | (z [ce] [Bd]2 [Bc]2) | %8
w: Lo! in skies a-|bove,|Dawns a ra- diant||
w: Earth in glad- ness|wakes,|Ev- ery note pro-||
w: Christ this day is|born,|Sav- ior of man-||
 [DGBd][EGBe] [GBdg]2 [Ada]2 | [Bdgb]6 | [EGce][Gceg] [cegc']2 [Gceg]2 | [B^db]6 | %12
w: star. Shep- herds in|the|field, Guard- ing safe|their|
w: longs. An- swering hills|send|back, Faint me- lo-|dious|
w: kind. In a shel-|ter|rude— Low- ly is|the|
 [e^ge'][dgd'] [cgc']2 [Bgb]2 | [dad'][cac'] [Beb]2 [Aea]2 | [DGBd]2 [GBdg]2 [Acdfa]2 | [GBdg]6 || %16
w: fold, Mute with rap-|ture kneel in wor-|ship, Glo- ry|be-|
w: strains; Choirs ce- les-|tial bring good tid-|ings, Sing grand|re-|
w: stall— Lies a ti-|ny roy- al stran-|ger, King o-|ver|
"^Refrain (melody in lower notes)" [DB]3 [EB] [GB][Ac] | [Bd]6 | [ce]3 [Ee] [Ge][A_e] | [Bd]6 | %20
w: hold. * * *||||
w: frains. ’Neath yon heav’n-|ly|sign Sleeps a child|di-|
w: all. * * *||||
 [df]3 [ce] [Bd][Ac] | [GB][Ac] [Bd]2 [GB]2 | [E^c]2 [Ac]2 [Bc]2 | [Ac]6 | [DB]3 [EB] [GB][Ac] | %25
w: |||||
w: vine; Bow in hum-|ble a- do- ra-|tion, Own Him|as|Lord. Mu- sic in|
w: |||||
 [Bd]6 | [ce]3 [Ee] [Ge][Ae] | [B^d]6 | [Bd]3 [d=f] [ce][Bd] | [B^c]2 [Ac]2 [Ec]2 | %30
w: |||||
w: the|sky, Voic- es clear|and|high, Harps of gold|re- sound- ing|
w: |||||
 [G_c]2 [Fc]2 [Dc]2 | [GB]6 |] %32
w: ||
w: In sweet- est|ac-|
w: ||
V:2
 x6 | x6 | x6 | x6 | x6 | x6 | x6 | [Aa]6 | x6 | x6 | x6 | x6 | x6 | x6 | x6 | x6 || x6 | x6 | x6 | %19
 x6 | x6 | x6 | x6 | x6 | x6 | x6 | x6 | x6 | x6 | x6 | x6 | x6 |] %32
V:3
 G,,2 [D,G,B,]2 [D,F,B,]2 | (G,,{G,}[D,G,B,] [D,G,B,]2 [D,G,B,]2) | C,2 [E,G,C]2 [E,G,C]2 | %3
 (G,,{G,}[D,G,B,] [D,G,B,]2 [D,G,B,]2) | G,,2 [D,G,B,]2 [D,G,B,]2 | %5
 (E,,[E,G,B,] [E,G,B,]2 [E,G,B,]2) | A,,2 [G,A,^C]2 [G,A,C]2 | (D,,{G,}[F,CD] [G,CE]2 [A,CF]2) | %8
 G,,2 [D,G,B,]2 [D,G,B,]2 | (G,,{G,}[D,G,B,] [D,G,B,]2 [D,G,B,]2) | C,2 [E,G,C]2 [E,G,C]2 | %11
 (B,,{E,}[^D,F,B,] [D,F,B,]2 [D,F,B,]2) | E,,2 [E,^G,D]2 [E,G,D]2 | A,,2 [E,A,C]2 [E,A,C]2 | %14
 D,2 [D,G,B,]2 [D,F,C]2 | [G,,D,G,B,]6 || G,,2 [D,G,B,]2 [D,G,B,]2 | (G,,2 [D,G,B,]2 [D,G,B,]2) | %18
 [C,,C,]2 [E,G,C]2 [E,G,C]2 | (G,,2 [D,G,B,]2 [E,G,B,]2) | D,,2 [D,F,C]2 [D,F,C]2 | %21
 G,,2 [D,G,B,]2 [D,G,B,]2 | A,,2 [G,A,^C]2 [G,A,C]2 | (F,,2 [D,F,C]2 [D,F,C]2) | %24
 [G,,D,]2 [G,B,]2 [G,B,]2 | (G,,2 [D,G,B,]2 [D,G,B,]2) | [C,,C,]2 [E,G,C]2 [E,G,C]2 | %27
 ([B,,,B,,]2 [F,B,^D]2 [F,B,D]2) | E,,2 [E,^G,D]2 [E,G,D]2 | A,,2 [G,A,^C]2 [G,A,C]2 | %30
 D,,2 [D,F,C]2 [D,F,C]2 | G,,2 [D,G,B,]4 |] %32

